img/icons/linkedin.svg

<?xml version="1.0" encoding="utf-8"?>
<!-- Generator: Adobe Illustrator 17.1.0, SVG Export Plug-In . SVG Version: 6.00 Build 0)  -->
<!DOCTYPE svg PUBLIC "-//W3C//DTD SVG 1.1//EN" "http://www.w3.org/Graphics/SVG/1.1/DTD/svg11.dtd">
<svg version="1.1" id="Calque_1" xmlns="http://www.w3.org/2000/svg" xmlns:xlink="http://www.w3.org/1999/xlink" x="0px" y="0px"
	 viewBox="-60 -60 160 160" enable-background="new -60 -60 160 160" xml:space="preserve">
<path fill="#FFFFFF" d="M37.037,0H2.953C1.323,0,0,1.292,0,2.882v34.232C0,38.707,1.323,40,2.953,40h34.085
	C38.668,40,40,38.707,40,37.114V2.882C40,1.292,38.668,0,37.037,0z M11.863,34.086H5.928V14.997h5.935V34.086z M8.896,12.387
	c-1.902,0-3.439-1.542-3.439-3.441c0-1.897,1.537-3.439,3.439-3.439c1.897,0,3.438,1.542,3.438,3.439
	C12.334,10.846,10.792,12.387,8.896,12.387z M34.083,34.086h-5.926v-9.282c0-2.215-0.043-5.062-3.084-5.062
	c-3.087,0-3.558,2.412-3.558,4.902v9.443h-5.931v-19.09h5.692v2.607h0.081c0.792-1.5,2.728-3.083,5.614-3.083
	c6.003,0,7.112,3.953,7.112,9.094V34.086z"/>
</svg>

<?xml version="1.0" encoding="UTF-8" standalone="no"?>
<svg width="40px" height="40px" viewBox="0 0 40 40" version="1.1" xmlns="http://www.w3.org/2000/svg" xmlns:xlink="http://www.w3.org/1999/xlink" xmlns:sketch="http://www.bohemiancoding.com/sketch/ns">
    <!-- Generator: Sketch 3.3.3 (12072) - http://www.bohemiancoding.com/sketch -->
    <title>linkedin</title>
    <desc>Created with Sketch.</desc>
    <defs></defs>
    <g id="Page-1" stroke="none" stroke-width="1" fill="none" fill-rule="evenodd" sketch:type="MSPage">
        <g id="linkedin" sketch:type="MSArtboardGroup" fill="#FFFFFF">
            <g sketch:type="MSLayerGroup" id="Shape">
                <path d="M37.037,0 L2.953,0 C1.323,0 0,1.292 0,2.882 L0,37.114 C0,38.707 1.323,40 2.953,40 L37.038,40 C38.668,40 40,38.707 40,37.114 L40,2.882 C40,1.292 38.668,0 37.037,0 L37.037,0 Z M11.863,34.086 L5.928,34.086 L5.928,14.997 L11.863,14.997 L11.863,34.086 L11.863,34.086 Z M8.896,12.387 C6.994,12.387 5.457,10.845 5.457,8.946 C5.457,7.049 6.994,5.507 8.896,5.507 C10.793,5.507 12.334,7.049 12.334,8.946 C12.334,10.846 10.792,12.387 8.896,12.387 L8.896,12.387 Z M34.083,34.086 L28.157,34.086 L28.157,24.804 C28.157,22.589 28.114,19.742 25.073,19.742 C21.986,19.742 21.515,22.154 21.515,24.644 L21.515,34.087 L15.584,34.087 L15.584,14.997 L21.276,14.997 L21.276,17.604 L21.357,17.604 C22.149,16.104 24.085,14.521 26.971,14.521 C32.974,14.521 34.083,18.474 34.083,23.615 L34.083,34.086 L34.083,34.086 Z" sketch:type="MSShapeGroup"></path>
            </g>
        </g>
    </g>
</svg>
